x-pack/solutions/search/plugins/serverless_search/public/assets/rust.svg

<svg width="128" height="128" viewBox="0 0 128 128" fill="none" xmlns="http://www.w3.org/2000/svg">
<path fill-rule="evenodd" clip-rule="evenodd" d="M62.9582 1.68494C62.7265 1.81637 61.7546 3.17604 60.7973 4.70657C58.395 8.55022 58.3681 8.55261 55.1409 5.24184C53.0413 3.08882 52.5339 2.69454 51.8573 2.69932C51.4173 2.70171 50.8621 2.84747 50.6219 3.02311C50.3829 3.19874 49.7051 4.59665 49.1168 6.12957C47.7698 9.64107 47.7048 9.75457 46.9584 9.89437C46.4988 9.9792 45.6138 9.49889 43.4922 8.01376C41.9258 6.91575 40.3888 6.01846 40.0775 6.01846C38.7857 6.01846 38.4216 6.70666 37.8064 10.3113C37.0244 14.8946 37.0513 14.879 32.813 13.002C31.102 12.2457 29.4792 11.6256 29.2059 11.6256C28.9326 11.6256 28.4141 11.9124 28.055 12.2624C27.4029 12.8993 27.4017 12.9017 27.5794 16.406L27.7584 19.9139L27.0781 20.2688C26.4751 20.583 26.0596 20.5448 23.3901 19.9294C19.9056 19.1277 19.1702 19.1492 18.4642 20.0752L17.9482 20.7515L18.6407 23.6441C19.0206 25.2343 19.3871 26.766 19.4557 27.0468C19.5232 27.3264 19.4067 27.7745 19.1959 28.0409C18.8478 28.4794 18.4777 28.5188 15.253 28.471C9.79508 28.3874 9.48499 28.8438 11.7402 33.6421C12.4572 35.1654 13.0443 36.549 13.0443 36.7151C13.0443 37.5921 12.3273 37.9111 9.24721 38.401C7.52393 38.6746 6.02617 38.8992 5.91831 38.8992C5.81045 38.8992 5.48688 39.1286 5.20007 39.4082C4.26244 40.3222 4.52841 41.18 6.65493 44.1061C9.30359 47.7502 9.29869 47.7634 4.92307 49.3954C-0.0531154 51.251 -0.153619 51.7086 3.6349 55.2117C7.16358 58.4735 7.16726 58.4257 3.17283 60.8738C0.146668 62.7269 0.100093 62.7712 0.0228767 63.776C-0.0702736 64.9982 -0.0482123 65.0198 3.56504 67.1716C7.13784 69.2983 7.13784 69.3628 3.63122 72.5971C-0.140137 76.074 -0.0236993 76.5818 4.95617 78.4134C9.30727 80.0132 9.31339 80.0323 6.65984 83.6765C5.15595 85.7423 4.67672 86.6025 4.67672 87.2405C4.67672 88.4341 5.31406 88.7388 9.12219 89.3625C12.3297 89.8894 13.0443 90.1988 13.0443 91.0615C13.0443 91.2383 12.456 92.6338 11.7365 94.1608C9.49847 98.9125 9.75341 99.3079 15.0507 99.3079C19.984 99.3079 19.8529 99.161 18.7902 103.498C17.9886 106.767 17.9764 107.393 18.702 108.099C19.2572 108.642 20.3039 108.581 23.5777 107.817C26.078 107.235 26.5168 107.195 27.0965 107.497L27.7584 107.842L27.5794 111.349C27.4017 114.855 27.4029 114.857 28.055 115.494C28.4141 115.844 28.9399 116.131 29.2218 116.131C29.5037 116.131 31.1265 115.514 32.8289 114.76C37.0538 112.89 37.0268 112.875 37.8064 117.444C38.4241 121.065 38.7844 121.738 40.1032 121.738C40.4305 121.738 41.9344 120.878 43.4469 119.826C46.1029 117.979 46.7917 117.69 47.4989 118.128C47.6815 118.241 48.39 119.758 49.0726 121.5C50.0765 124.062 50.4442 124.728 51.0031 124.989C52.0669 125.486 52.7251 125.087 55.2255 122.432C58.2443 119.226 58.3681 119.242 60.8329 123.136C63.5551 127.435 64.2598 127.425 67.0507 123.049C69.4554 119.278 69.4272 119.28 72.6777 122.59C74.8361 124.786 75.2957 125.136 76.0237 125.136C76.4883 125.136 77.0435 124.966 77.2555 124.758C77.4688 124.55 78.1748 123.015 78.8244 121.347C79.474 119.678 80.1469 118.225 80.3209 118.118C81.0085 117.691 81.7206 117.991 84.3729 119.826C85.9344 120.907 87.404 121.738 87.7533 121.738C89.0501 121.738 89.5183 120.841 90.0575 117.313C90.5184 114.306 90.6116 114.018 91.2183 113.718C91.8152 113.423 92.173 113.522 94.9725 114.761C96.6749 115.514 98.2977 116.131 98.5796 116.131C98.8615 116.131 99.3959 115.836 99.7648 115.475L100.438 114.82L100.253 111.457C100.076 108.245 100.092 108.073 100.618 107.609C101.158 107.133 101.214 107.135 104.236 107.808C107.896 108.623 108.579 108.644 109.266 107.974C109.938 107.319 109.93 107.176 109.011 103.397C107.98 99.1574 107.842 99.3079 112.796 99.3079C116.173 99.3079 116.549 99.2614 116.979 98.799C117.697 98.0247 117.527 97.1382 116.082 94.1357C115.353 92.6231 114.761 91.2467 114.766 91.077C114.79 90.1845 115.51 89.8798 118.835 89.3529C120.869 89.0315 122.392 88.6588 122.668 88.4162C123.592 87.6026 123.252 86.544 121.143 83.6609C118.499 80.0479 118.51 80.0132 122.744 78.4923C127.813 76.6714 127.957 76.0644 124.164 72.5505C120.65 69.2959 120.649 69.3138 124.497 67.0103C129.15 64.2264 129.157 63.5991 124.58 60.8296C120.643 58.4484 120.645 58.4818 124.174 55.2153C127.959 51.7098 127.856 51.251 122.878 49.3954C118.486 47.7574 118.472 47.7168 121.142 44.1455C122.731 42.0188 123.125 41.3127 123.125 40.5838C123.125 39.3102 122.539 39.0246 118.685 38.4177C115.466 37.9111 114.757 37.6028 114.757 36.7103C114.757 36.5407 115.345 35.175 116.065 33.6731C117.473 30.7328 117.67 29.5559 116.874 28.8522C116.446 28.4746 115.872 28.4208 112.803 28.4698C109.592 28.5224 109.182 28.4782 108.737 28.0421C108.25 27.5654 108.255 27.4985 109.015 24.4075C109.946 20.62 109.95 20.528 109.184 19.8267C108.407 19.1146 107.922 19.1265 104.354 19.945C101.754 20.5424 101.324 20.5818 100.733 20.2735L100.063 19.9235L100.434 12.9327L99.7636 12.2792C99.3947 11.9195 98.8713 11.6256 98.5992 11.6256C98.3283 11.6256 96.7141 12.2505 95.0129 13.0128C92.1718 14.2876 91.8666 14.3725 91.2526 14.0594C90.6397 13.7464 90.538 13.4381 90.0147 10.3233C89.4104 6.7198 89.0366 6.01846 87.7239 6.01846C87.4126 6.01846 85.8695 6.92052 84.2945 8.02332C81.7084 9.83463 81.3615 10.0055 80.7168 9.78683C80.1836 9.60523 79.8735 9.20975 79.4948 8.22643C79.2141 7.50239 78.6773 6.10687 78.2998 5.12594C77.5374 3.14737 77.1121 2.7041 75.9698 2.7041C75.3325 2.7041 74.7552 3.15095 72.6862 5.24542C69.4346 8.53827 69.4223 8.53708 67.031 4.71374C66.075 3.1856 65.0761 1.82115 64.8101 1.68255C64.212 1.36951 63.5085 1.37071 62.9582 1.68494ZM65.9218 13.1968C68.7543 15.1622 67.248 19.7825 63.7745 19.7825C60.4039 19.7825 58.7063 15.8241 61.1135 13.5767C62.4716 12.3078 64.4192 12.1537 65.9218 13.1968ZM62.36 25.4004C64.2169 26.0886 64.9793 25.6752 69.2188 21.6918L72.4043 18.6976L73.7526 18.872C77.9811 19.4193 86.3916 23.0204 91.2244 26.3526C95.665 29.4161 101.567 35.6553 104.082 39.9458L104.62 40.8646L102.237 46.0978C100.926 48.9761 99.8531 51.6333 99.8531 52.0049C99.8531 52.8615 100.429 54.2164 100.984 54.6645C101.218 54.8545 103.443 55.8987 105.927 56.9848L110.443 58.961L110.62 60.0805C110.85 61.5393 110.88 65.1225 110.672 66.1405L110.509 66.9362H107.931C104.942 66.9362 105.172 66.6757 105.011 70.2506C104.893 72.8421 104.251 74.2746 102.79 75.2018C100.409 76.7156 96.4788 76.4408 94.8119 74.645C94.5557 74.369 94.0581 72.9819 93.7051 71.5612C92.6743 67.4117 91.2893 65.0819 88.5071 62.8154C87.6283 62.0997 86.9101 61.4318 86.9101 61.3302C86.9101 61.2299 87.8759 60.4365 89.0574 59.5703C93.3595 56.4089 95.8329 52.7289 96.105 49.0836C96.6234 42.1311 90.9413 35.6505 82.4891 33.5501C80.4851 33.0519 79.6296 33.0363 54.8382 33.0363C40.7676 33.0363 29.2549 32.9467 29.2549 32.838C29.2549 32.5811 32.3816 29.6228 34.2237 28.1389C39.2821 24.0622 45.8528 20.8542 52.6577 19.1409L55.011 18.5471L58.3546 21.8519C60.1943 23.6691 61.9972 25.2654 62.36 25.4004ZM20.2573 46.6641C21.798 47.6475 22.4292 50.1183 21.5198 51.6034C20.1127 53.9022 16.5485 53.999 15.1402 51.7767C13.0921 48.5483 17.0363 44.6067 20.2573 46.6641ZM111.018 46.7896C115.048 49.1852 111.925 55.0779 107.61 53.2176C104.73 51.975 104.638 48.1373 107.455 46.737C108.63 46.1528 109.981 46.1731 111.018 46.7896ZM32.1315 76.1122H18.8405L18.3134 73.8827C17.2765 69.4919 16.8402 64.9493 17.1012 61.2287L17.2839 58.6145L21.8531 56.6168C24.72 55.3646 26.5634 54.41 26.8011 54.0551C27.8405 52.5103 27.7412 51.4063 26.2827 48.2664L25.6012 46.8003H32.1315V76.1122ZM70.3967 47.4384C73.2427 48.16 74.7466 49.6284 74.7503 51.6871C74.7527 53.1985 73.9842 54.1471 72.0783 54.9859C70.7289 55.5809 70.5144 55.5952 62.0046 55.6765L53.311 55.7577V47.0548H61.1001C67.1842 47.0548 69.2201 47.1385 70.3967 47.4384ZM67.46 68.4691C68.8708 68.8515 70.5389 70.0462 71.3944 71.2876C72.2928 72.5924 72.8186 74.289 74.0639 79.9093C75.1155 84.6598 75.7921 86.213 77.687 88.2346C80.0341 90.7377 79.4899 90.6409 91.2146 90.6409C96.8293 90.6409 101.422 90.7281 101.422 90.8357C101.422 91.028 97.5549 95.4846 97.3882 95.4846C97.3404 95.4846 95.3205 95.0724 92.8999 94.5682C86.0643 93.1452 85.818 93.3125 84.2491 100.454L83.2404 105.042L82.3298 105.479C80.8099 106.21 75.8705 107.716 73.3101 108.229C69.0791 109.078 64.4743 109.365 60.4272 109.031C53.5279 108.461 44.3918 105.852 44.0352 104.348C43.9592 104.029 43.4996 101.964 43.0154 99.7584C42.5301 97.5528 41.9405 95.4607 41.7052 95.1094C40.5739 93.4272 39.3838 93.3232 34.1502 94.4523C32.1683 94.88 30.4389 95.2289 30.3065 95.2289C30.0577 95.2289 26.3795 91.083 26.3795 90.8034C26.3795 90.7162 35.116 90.6146 45.794 90.5788L65.2085 90.5143L65.2784 83.7912C65.3274 79.0442 65.26 76.9641 65.0491 76.718C64.8138 76.4408 63.5612 76.3679 59.0312 76.3679H53.311V68.211L59.9136 68.2122C63.544 68.2134 66.9403 68.3293 67.46 68.4691ZM37.5441 99.0427C40.6315 100.877 39.1509 105.682 35.4997 105.679C31.7553 105.676 30.3678 100.915 33.5582 99.0176C34.6135 98.3904 36.4679 98.4023 37.5441 99.0427ZM94.079 99.2434C95.5927 100.325 96.0964 102.575 95.1588 104.073C92.6964 108.01 86.5387 104.88 88.5953 100.738C89.6065 98.7034 92.2944 97.9698 94.079 99.2434Z" fill="black"/>
</svg>

<svg xmlns="http://www.w3.org/2000/svg" width="128" height="128" fill="none"><path fill="#000" fill-rule="evenodd" d="M62.958 1.685c-.231.131-1.203 1.491-2.16 3.022-2.403 3.843-2.43 3.846-5.657.535-2.1-2.153-2.607-2.547-3.284-2.543-.44.003-.995.148-1.235.324s-.917 1.574-1.505 3.107c-1.347 3.511-1.412 3.625-2.159 3.764-.46.085-1.344-.395-3.466-1.88-1.566-1.098-3.103-1.996-3.414-1.996-1.292 0-1.656.689-2.272 4.293-.782 4.584-.755 4.568-4.993 2.691-1.711-.756-3.334-1.376-3.607-1.376s-.792.286-1.151.636c-.652.637-.653.64-.476 4.144l.18 3.508-.68.355c-.604.314-1.02.276-3.689-.34-3.484-.801-4.22-.78-4.926.146l-.516.677.693 2.892c.38 1.59.746 3.122.815 3.403.067.28-.05.727-.26.994-.348.438-.718.478-3.943.43-5.458-.084-5.768.373-3.513 5.171.717 1.523 1.304 2.907 1.304 3.073 0 .877-.717 1.196-3.797 1.686-1.723.274-3.22.498-3.329.498s-.431.23-.718.51c-.938.913-.672 1.771 1.455 4.697 2.649 3.644 2.644 3.657-1.732 5.29-4.976 1.855-5.077 2.313-1.288 5.816 3.529 3.261 3.532 3.214-.462 5.662C.147 62.727.1 62.77.023 63.776c-.093 1.222-.071 1.244 3.542 3.396 3.573 2.126 3.573 2.19.066 5.425-3.771 3.477-3.655 3.985 1.325 5.816 4.351 1.6 4.357 1.62 1.704 5.264-1.504 2.065-1.983 2.925-1.983 3.563 0 1.194.637 1.499 4.445 2.123 3.208.526 3.922.836 3.922 1.698 0 .177-.588 1.573-1.308 3.1-2.238 4.751-1.983 5.147 3.315 5.147 4.933 0 4.802-.147 3.74 4.19-.802 3.269-.815 3.895-.089 4.601.555.543 1.602.482 4.876-.282 2.5-.582 2.939-.622 3.518-.32l.662.345-.179 3.507c-.177 3.506-.176 3.508.476 4.145.36.35.885.637 1.167.637s1.904-.617 3.607-1.371c4.225-1.87 4.198-1.885 4.977 2.684.618 3.621.978 4.294 2.297 4.294.328 0 1.831-.86 3.344-1.912 2.656-1.847 3.345-2.136 4.052-1.698.182.113.891 1.63 1.574 3.372 1.004 2.562 1.371 3.228 1.93 3.489 1.064.497 1.722.098 4.222-2.557 3.02-3.206 3.143-3.19 5.608.704 2.722 4.299 3.427 4.289 6.218-.087 2.404-3.771 2.376-3.769 5.627-.459 2.158 2.196 2.618 2.546 3.346 2.546.464 0 1.02-.17 1.231-.378.214-.208.92-1.743 1.57-3.411.649-1.669 1.322-3.122 1.496-3.229.688-.427 1.4-.127 4.052 1.708 1.561 1.081 3.031 1.912 3.38 1.912 1.297 0 1.765-.897 2.305-4.425.46-3.007.554-3.295 1.16-3.595.597-.295.955-.196 3.754 1.043 1.703.753 3.326 1.37 3.608 1.37s.816-.295 1.185-.656l.673-.655-.185-3.363c-.177-3.212-.161-3.384.365-3.848.54-.476.596-.474 3.618.199 3.66.815 4.343.836 5.03.166.672-.655.664-.798-.255-4.577-1.031-4.24-1.169-4.09 3.785-4.09 3.377 0 3.753-.046 4.183-.508.718-.774.548-1.66-.897-4.663-.729-1.513-1.321-2.89-1.316-3.059.024-.892.744-1.197 4.069-1.724 2.034-.322 3.557-.694 3.833-.937.924-.813.584-1.872-1.525-4.755-2.644-3.613-2.633-3.648 1.601-5.169 5.069-1.82 5.213-2.428 1.42-5.942-3.514-3.254-3.515-3.236.333-5.54 4.653-2.784 4.66-3.41.083-6.18-3.937-2.382-3.935-2.348-.406-5.615 3.785-3.505 3.682-3.964-1.296-5.82-4.392-1.638-4.406-1.678-1.736-5.25 1.589-2.126 1.983-2.832 1.983-3.561 0-1.274-.586-1.56-4.44-2.166-3.219-.507-3.928-.815-3.928-1.708 0-.17.588-1.535 1.308-3.037 1.408-2.94 1.605-4.117.809-4.82-.428-.378-1.002-.432-4.071-.383-3.211.052-3.621.008-4.066-.428-.487-.477-.482-.544.278-3.635.931-3.787.935-3.879.169-4.58-.777-.712-1.262-.7-4.83.118-2.6.597-3.03.637-3.621.328l-.67-.35.371-6.99-.67-.654c-.37-.36-.893-.653-1.165-.653-.27 0-1.885.625-3.586 1.387-2.841 1.275-3.146 1.36-3.76 1.046-.613-.313-.715-.62-1.238-3.736-.605-3.603-.978-4.305-2.291-4.305-.311 0-1.855.903-3.43 2.005-2.586 1.812-2.932 1.983-3.577 1.764-.533-.182-.843-.577-1.222-1.56L78.3 5.125c-.763-1.979-1.188-2.422-2.33-2.422-.638 0-1.215.447-3.284 2.541-3.251 3.293-3.264 3.292-5.655-.531-.956-1.528-1.955-2.893-2.22-3.031-.599-.313-1.303-.312-1.853.002m2.964 11.512c2.832 1.965 1.326 6.586-2.147 6.586-3.371 0-5.069-3.959-2.661-6.206 1.358-1.27 3.305-1.423 4.808-.38M62.36 25.4c1.857.689 2.62.275 6.859-3.708l3.185-2.994 1.349.174c4.228.547 12.639 4.148 17.471 7.48 4.441 3.064 10.343 9.303 12.858 13.594l.538.919-2.383 5.233c-1.311 2.878-2.384 5.535-2.384 5.907 0 .856.576 2.211 1.131 2.66.234.19 2.459 1.234 4.943 2.32l4.516 1.976.177 1.12c.23 1.458.26 5.041.052 6.06l-.163.795h-2.578c-2.989 0-2.759-.26-2.92 3.315-.118 2.591-.76 4.024-2.221 4.95-2.381 1.515-6.311 1.24-7.978-.556-.256-.276-.754-1.663-1.107-3.084-1.03-4.15-2.416-6.48-5.198-8.746-.879-.715-1.597-1.383-1.597-1.485 0-.1.966-.893 2.147-1.76 4.302-3.161 6.776-6.841 7.048-10.486.518-6.953-5.164-13.434-13.616-15.534-2.004-.498-2.86-.514-27.65-.514-14.071 0-25.584-.09-25.584-.198 0-.257 3.127-3.215 4.969-4.7 5.058-4.076 11.629-7.284 18.434-8.997l2.353-.594 3.344 3.305c1.84 1.817 3.642 3.413 4.005 3.548M20.257 46.664c1.541.983 2.172 3.454 1.263 4.94-1.407 2.298-4.971 2.395-6.38.173-2.048-3.229 1.896-7.17 5.117-5.113m90.761.126c4.03 2.395.907 8.288-3.408 6.428-2.88-1.243-2.972-5.08-.155-6.481 1.175-.584 2.526-.564 3.563.053M32.132 76.112H18.84l-.528-2.23c-1.037-4.39-1.473-8.933-1.212-12.653l.183-2.614 4.57-1.998c2.866-1.252 4.71-2.207 4.947-2.562 1.04-1.545.94-2.649-.518-5.789L25.6 46.8h6.53zm38.265-28.674c2.846.722 4.35 2.19 4.353 4.25.003 1.51-.766 2.46-2.672 3.298-1.35.595-1.564.61-10.073.69l-8.694.082v-8.703h7.79c6.083 0 8.12.084 9.296.383M67.46 68.47c1.41.383 3.079 1.577 3.934 2.819.899 1.304 1.425 3.001 2.67 8.621 1.052 4.75 1.728 6.304 3.623 8.326 2.347 2.503 1.803 2.406 13.528 2.406 5.614 0 10.207.087 10.207.195 0 .192-3.867 4.649-4.034 4.649-.048 0-2.068-.413-4.488-.917-6.836-1.423-7.082-1.255-8.65 5.886l-1.01 4.588-.91.437c-1.52.731-6.46 2.237-9.02 2.75-4.23.849-8.836 1.136-12.883.802-6.9-.57-16.035-3.179-16.392-4.683-.076-.319-.535-2.384-1.02-4.59s-1.075-4.297-1.31-4.649c-1.131-1.682-2.321-1.786-7.555-.657-1.982.428-3.711.777-3.843.777-.25 0-3.927-4.146-3.927-4.426 0-.087 8.736-.188 19.414-.224l19.415-.065.07-6.723c.048-4.747-.019-6.827-.23-7.073-.235-.277-1.488-.35-6.018-.35h-5.72V68.21l6.603.001c3.63.001 7.026.117 7.546.257M37.544 99.043c3.088 1.834 1.607 6.639-2.044 6.636-3.745-.003-5.132-4.764-1.942-6.661 1.056-.628 2.91-.616 3.986.025m56.535.2c1.514 1.082 2.017 3.332 1.08 4.83-2.463 3.937-8.62.807-6.564-3.335 1.011-2.035 3.7-2.768 5.484-1.495" clip-rule="evenodd"/></svg>
